X: 9
T: JIGS: Black Rogue Set
T: Black Rogue
C: C: Trad.; S: Various
C: Set Leaders: Sophie, Anton, Tania
Z: Oleg Naumov arr.; Mladenski / ceolachan / JACKB at The Session
N: https://thesession.org/members/26966/sets/99413
R: Jig
M: 6/8
L: 1/8
Q: 3/8=116
K: Amix
d|:"A5"cAA "G"BAG|"A5"cAA A2 d|"A5"cAA "G"BAG|"D"AFD DBd|
"A5"cAA "G"BAG|"A5"cAA AGF|"G"GFG BAB|1 "D"AFD DBd:|2 "A5"AFD D2g||
|:"D"f3 "Em"gfg|"D/F#"afd "Asus4"cBA|"D/F#"fef "G"gfg|"A5"afd dfg|
"D"agf "Em"gfe|"D/F#"fed "G"e2d|"Asus4"cAA "G"BAG|1 "D/F#"AFD "D"D2g:|2 "D/F#"AFD "D"D3||
T: Winnie Hayes'
K: Edor
|:"Em"BAF E2 E|FEE E2 A|BAF E2 E|"D"FDD FGA|
"Em"BAF ~E3|FEE E2 e|"D (G)"edB AB/c/d|"D/B"edB "D"AFE:||
|:"Em (D)"Bcd "Em"e2 e|"(C)"fee efd|"Am"~B3 efg|"D/F# (Bm)"ef{a}f def|
"G"g2 g "D/F#"fgf|"Em"edB "(G/B)"e2 f|"Am"edB ABd|"D (Bm)"edB AFE:||
T: Cordal
K: Amix
|:"G"BAF "A"E3|"A"FEF "D"DFA|"D"BAF DFA|"G"B2A Bcd|
"G"BAF "A"E3|"A"FEF "D"DFA|"G"d2f edc|"G"B2A "(A)"BAB:||
|:"D"d2e fed|"A"c2d ecA|"D"d2e fed|"G"f2e "A"fga|
"D"d2e fed|"A"c2d ecA|"G"dfd "(D/F#)"cec|"G"B2A "A"Bcd:||

